X: 3607
T: Bill Harte's
R: jig
M: 6/8
K: Dmixolydian
|:~D3 ~A3|BAG ABA|~D3 ~A3|BAG EDC|
~D3 ~A3|BAG ABc|dcB cBA|1 BAG EGE:|2 BAG E2D||
|:deB ~c2A|BAG ABc|deB ~c2A|BAG EDC|
deB ~c2A|BAG ABc|deB c2A|1 BAG EDC:|2 BAG EGE||

